Sources/FrostedUI/Resources/Icons.xcassets/edit16.imageset/edit-16.svg

<svg width="16" height="16" viewBox="0 0 16 16" fill="none" xmlns="http://www.w3.org/2000/svg" data-fui-icon="true">
  <path
    d="M5.25 0C5.66421 0 6 0.335786 6 0.75C6 1.16421 5.66421 1.5 5.25 1.5H4.25C2.73122 1.5 1.5 2.73122 1.5 4.25V11.75C1.5 13.2688 2.73122 14.5 4.25 14.5H11.75C13.2688 14.5 14.5 13.2688 14.5 11.75V10.75C14.5 10.3358 14.8358 10 15.25 10C15.6642 10 16 10.3358 16 10.75V11.75C16 14.0972 14.0972 16 11.75 16H4.25C1.90279 16 8.0532e-08 14.0972 0 11.75V4.25C0 1.90279 1.90279 3.22128e-08 4.25 0H5.25ZM11.125 0.813477C12.1989 -0.260302 13.9407 -0.260303 15.0146 0.813477L15.1865 0.985352C16.26 2.05918 16.2599 3.80015 15.1865 4.87402L9.86621 10.1943C9.35056 10.71 8.65111 10.9999 7.92188 11H6.25C5.55975 11 5.00016 10.4402 5 9.75V8.07812C5.00006 7.34887 5.29 6.64946 5.80566 6.13379L9.54004 2.39941L11.125 0.813477ZM6.86621 7.19434C6.63185 7.4287 6.50006 7.74669 6.5 8.07812V9.5H7.92188C8.25329 9.49992 8.57131 9.36814 8.80566 9.13379L12.0098 5.92969L10.0703 3.99023L6.86621 7.19434ZM13.9541 1.87402C13.4661 1.38613 12.6747 1.38633 12.1865 1.87402L11.1309 2.92969L13.0693 4.86816L14.125 3.81348C14.613 3.32531 14.6131 2.53401 14.125 2.0459L13.9541 1.87402Z"
    fill="currentColor"
  />
</svg>

<svg xmlns="http://www.w3.org/2000/svg" width="16" height="16" fill="none" data-fui-icon="true" viewBox="0 0 16 16"><path fill="currentColor" d="M5.25 0a.75.75 0 0 1 0 1.5h-1A2.75 2.75 0 0 0 1.5 4.25v7.5a2.75 2.75 0 0 0 2.75 2.75h7.5a2.75 2.75 0 0 0 2.75-2.75v-1a.75.75 0 0 1 1.5 0v1A4.25 4.25 0 0 1 11.75 16h-7.5A4.25 4.25 0 0 1 0 11.75v-7.5A4.25 4.25 0 0 1 4.25 0zm5.875.813a2.75 2.75 0 0 1 3.89 0l.172.172a2.75 2.75 0 0 1 0 3.889l-5.32 5.32A2.75 2.75 0 0 1 7.921 11H6.25C5.56 11 5 10.44 5 9.75V8.078c0-.73.29-1.429.806-1.944L9.54 2.399zM6.866 7.194a1.25 1.25 0 0 0-.366.884V9.5h1.422c.331 0 .65-.132.884-.366L12.01 5.93l-1.94-1.94zm7.088-5.32a1.25 1.25 0 0 0-1.767 0L11.13 2.93l1.938 1.938 1.056-1.055a1.25 1.25 0 0 0 0-1.767z"/></svg>
